assets/svg/networks/wallet_lido.svg

<svg width="36" height="36" viewBox="0 0 36 36" fill="none" xmlns="http://www.w3.org/2000/svg">
<g clip-path="url(#clip0_21224_78192)">
<rect width="36" height="36" rx="12" fill="url(#paint0_linear_21224_78192)"/>
<mask id="mask0_21224_78192" style="mask-type:luminance" maskUnits="userSpaceOnUse" x="8" y="16" width="20" height="16">
<path d="M17.9856 21.1968L9.96477 16.6176L9.74877 16.9488C7.28637 20.736 7.83357 25.6896 11.0736 28.872C14.8896 32.616 21.0816 32.616 24.8976 28.872C28.1376 25.6896 28.6848 20.736 26.2224 16.9488L26.0064 16.6176L17.9856 21.1968Z" fill="white"/>
</mask>
<g mask="url(#mask0_21224_78192)">
<path d="M17.9855 31.968C23.3856 31.968 27.7631 27.5904 27.7631 22.1904C27.7631 16.7904 23.3856 12.4128 17.9855 12.4128C12.5855 12.4128 8.20795 16.7904 8.20795 22.1904C8.20795 27.5904 12.5855 31.968 17.9855 31.968Z" fill="url(#paint1_radial_21224_78192)"/>
</g>
<path d="M18 11.9952L9.96478 16.6176L17.9856 21.1968L25.992 16.6176L18 11.9952Z" fill="url(#paint2_radial_21224_78192)"/>
<path d="M17.9856 4.32L11.0736 14.9184L17.9856 18.864V4.32Z" fill="url(#paint3_linear_21224_78192)"/>
<path d="M17.9856 18.864L24.8976 14.9184L17.9856 4.32V18.864Z" fill="url(#paint4_linear_21224_78192)"/>
</g>
<defs>
<linearGradient id="paint0_linear_21224_78192" x1="18" y1="0" x2="18" y2="36" gradientUnits="userSpaceOnUse">
<stop stop-color="#F89791"/>
<stop offset="1" stop-color="#F7C882"/>
</linearGradient>
<radialGradient id="paint1_radial_21224_78192" cx="0" cy="0" r="1" gradientUnits="userSpaceOnUse" gradientTransform="translate(17.9671 30.1934) rotate(-90.4664) scale(13.0575 15.5638)">
<stop stop-color="#C5C6AB"/>
<stop offset="1" stop-color="#7985AB"/>
</radialGradient>
<radialGradient id="paint2_radial_21224_78192" cx="0" cy="0" r="1" gradientUnits="userSpaceOnUse" gradientTransform="translate(17.9784 16.596) scale(0.403315)">
<stop stop-color="#AEE6F9" stop-opacity="0.8588"/>
<stop offset="1" stop-color="#C8D6DC"/>
</radialGradient>
<linearGradient id="paint3_linear_21224_78192" x1="14.5296" y1="3.6" x2="14.5296" y2="18" gradientUnits="userSpaceOnUse">
<stop stop-color="#77D4FF"/>
<stop offset="1" stop-color="#93D6F2" stop-opacity="0.898"/>
</linearGradient>
<linearGradient id="paint4_linear_21224_78192" x1="21.4416" y1="3.6" x2="21.4416" y2="18" gradientUnits="userSpaceOnUse">
<stop stop-color="#506AAC"/>
<stop offset="1" stop-color="#96CFEF" stop-opacity="0.8196"/>
</linearGradient>
<clipPath id="clip0_21224_78192">
<rect width="36" height="36" fill="white"/>
</clipPath>
</defs>
</svg>

<svg xmlns="http://www.w3.org/2000/svg" width="36" height="36" fill="none"><g clip-path="url(#a)"><rect width="36" height="36" fill="url(#b)" rx="12"/><mask id="c" width="20" height="16" x="8" y="16" maskUnits="userSpaceOnUse" style="mask-type:luminance"><path fill="#fff" d="m17.986 21.197-8.021-4.58-.216.332c-2.463 3.787-1.915 8.74 1.325 11.923 3.816 3.744 10.008 3.744 13.824 0 3.24-3.182 3.787-8.136 1.324-11.923l-.216-.331z"/></mask><g mask="url(#c)"><path fill="url(#d)" d="M17.986 31.968c5.4 0 9.777-4.378 9.777-9.778s-4.377-9.777-9.778-9.777c-5.4 0-9.777 4.377-9.777 9.777s4.377 9.778 9.777 9.778"/></g><path fill="url(#e)" d="m18 11.995-8.035 4.623 8.02 4.579 8.007-4.58z"/><path fill="url(#f)" d="m17.986 4.32-6.912 10.598 6.912 3.946z"/><path fill="url(#g)" d="m17.986 18.864 6.912-3.946L17.986 4.32z"/></g><defs><linearGradient id="b" x1="18" x2="18" y1="0" y2="36" gradientUnits="userSpaceOnUse"><stop stop-color="#F89791"/><stop offset="1" stop-color="#F7C882"/></linearGradient><linearGradient id="f" x1="14.53" x2="14.53" y1="3.6" y2="18" gradientUnits="userSpaceOnUse"><stop stop-color="#77D4FF"/><stop offset="1" stop-color="#93D6F2" stop-opacity=".898"/></linearGradient><linearGradient id="g" x1="21.442" x2="21.442" y1="3.6" y2="18" gradientUnits="userSpaceOnUse"><stop stop-color="#506AAC"/><stop offset="1" stop-color="#96CFEF" stop-opacity=".82"/></linearGradient><radialGradient id="d" cx="0" cy="0" r="1" gradientTransform="matrix(-.10629 -13.05707 15.56328 -.1267 17.967 30.193)" gradientUnits="userSpaceOnUse"><stop stop-color="#C5C6AB"/><stop offset="1" stop-color="#7985AB"/></radialGradient><radialGradient id="e" cx="0" cy="0" r="1" gradientTransform="matrix(.40331 0 0 .40331 17.978 16.596)" gradientUnits="userSpaceOnUse"><stop stop-color="#AEE6F9" stop-opacity=".859"/><stop offset="1" stop-color="#C8D6DC"/></radialGradient><clipPath id="a"><path fill="#fff" d="M0 0h36v36H0z"/></clipPath></defs></svg>
